modules/themify-icons/icons/location-pin.svg

<?xml version="1.0" encoding="utf-8"?>
<!-- Generated by IcoMoon.io -->
<!DOCTYPE svg PUBLIC "-//W3C//DTD SVG 1.1//EN" "http://www.w3.org/Graphics/SVG/1.1/DTD/svg11.dtd">
<svg version="1.1" xmlns="http://www.w3.org/2000/svg" xmlns:xlink="http://www.w3.org/1999/xlink" width="17" height="17" viewBox="0 0 17 17">
<g>
</g>
	<path d="M8.5 0.5c-3.032 0-5.5 2.467-5.5 5.5 0 4.373 4.913 10.086 5.122 10.328l0.378 0.435 0.378-0.436c0.209-0.241 5.122-5.954 5.122-10.327 0-3.033-2.468-5.5-5.5-5.5zM8.5 15.215c-1.146-1.424-4.5-5.879-4.5-9.215 0-2.481 2.019-4.5 4.5-4.5s4.5 2.019 4.5 4.5c0 3.333-3.354 7.791-4.5 9.215zM8.5 3.139c-1.654 0-3 1.346-3 3s1.346 3 3 3 3-1.346 3-3-1.346-3-3-3zM8.5 8.139c-1.103 0-2-0.897-2-2s0.897-2 2-2 2 0.897 2 2-0.897 2-2 2z" fill="#000000" />
</svg>

<svg xmlns="http://www.w3.org/2000/svg" width="17" height="17" viewBox="0 0 17 17"><path d="M8.5.5A5.506 5.506 0 003 6c0 4.373 4.913 10.086 5.122 10.328l.378.435.378-.436C9.087 16.086 14 10.373 14 6 14 2.967 11.532.5 8.5.5zm0 14.715C7.354 13.791 4 9.336 4 6c0-2.481 2.019-4.5 4.5-4.5S13 3.519 13 6c0 3.333-3.354 7.791-4.5 9.215zm0-12.076c-1.654 0-3 1.346-3 3s1.346 3 3 3 3-1.346 3-3-1.346-3-3-3zm0 5c-1.103 0-2-.897-2-2s.897-2 2-2 2 .897 2 2-.897 2-2 2z"/></svg>
